icons/svg/skimap/piste_skitour.svg

<?xml version="1.0" encoding="UTF-8" standalone="no"?>
<svg
   xmlns:dc="http://purl.org/dc/elements/1.1/"
   xmlns:cc="http://creativecommons.org/ns#"
   xmlns:rdf="http://www.w3.org/1999/02/22-rdf-syntax-ns#"
   xmlns:svg="http://www.w3.org/2000/svg"
   xmlns="http://www.w3.org/2000/svg"
   xmlns:sodipodi="http://sodipodi.sourceforge.net/DTD/sodipodi-0.dtd"
   xmlns:inkscape="http://www.inkscape.org/namespaces/inkscape"
   width="32"
   height="32"
   id="svg2"
   version="1.1"
   inkscape:version="0.48.4 r9939"
   sodipodi:docname="piste_nordic.svg">
  <defs
     id="defs13">
    <inkscape:path-effect
       effect="gears"
       id="path-effect3774"
       is_visible="true"
       teeth="6"
       phi="-1.2" />
    <inkscape:path-effect
       effect="bend_path"
       id="path-effect3772"
       is_visible="false"
       bendpath="m 95.790098,316.51174 c 144.429032,-206.42506 223.313032,-11.7428 339.548092,0"
       prop_scale="1.19"
       scale_y_rel="false"
       vertical="false"
       bendpath-nodetypes="cc" />
  </defs>
  <sodipodi:namedview
     pagecolor="#ffffff"
     bordercolor="#666666"
     borderopacity="1"
     objecttolerance="10"
     gridtolerance="10"
     guidetolerance="10"
     inkscape:pageopacity="0"
     inkscape:pageshadow="2"
     inkscape:window-width="1680"
     inkscape:window-height="1021"
     id="namedview11"
     showgrid="false"
     inkscape:zoom="9.2070175"
     inkscape:cx="7.6258907"
     inkscape:cy="20.202625"
     inkscape:window-x="0"
     inkscape:window-y="0"
     inkscape:window-maximized="1"
     inkscape:current-layer="svg2"
     inkscape:snap-object-midpoints="true"
     inkscape:snap-page="true" />
  <metadata
     id="metadata2975">image/svg+xmlen<rdf:RDF>
  <cc:Work
     rdf:about="">
    <dc:format>image/svg+xml</dc:format>
    <dc:type
       rdf:resource="http://purl.org/dc/dcmitype/StillImage" />
    <dc:title></dc:title>
  </cc:Work>
</rdf:RDF>
</metadata>
  <g
     transform="matrix(0.0551864,0,0,0.0551864,0,-0.0555723)"
     id="g1327">
    <path
       inkscape:connector-curvature="0"
       d="M 66.275,1.768 C 24.94,1.768 1.704,23.139 1.704,66.804 l 0,450.123 c 0,40.844 20.895,62.229 62.192,62.229 l 452.024,0 c 41.307,0 62.229,-20.315 62.229,-62.229 l 0,-450.123 c 0,-42.601 -20.922,-65.036 -63.521,-65.036 -0.004,0 -448.495,-0.143 -448.353,0 z"
       style="fill:#111111;stroke:#eeeeee;stroke-width:3.40799999"
       id="path1329" />
  </g>
  <path
     inkscape:connector-curvature="0"
     style="font-size:40px;font-style:normal;font-variant:normal;font-weight:normal;font-stretch:normal;text-align:start;line-height:125%;writing-mode:lr-tb;text-anchor:start;fill:#ffffff;fill-opacity:1;stroke:none;font-family:NPSPICT3;-inkscape-font-specification:NPSPICT3"
     d="m 15.40625,5.8437512 c -0.08584,0.00941 -0.166639,0.030494 -0.25,0.0625 -0.345516,0.1326924 -0.601696,0.3855528 -0.75,0.71875 -0.148317,0.3332316 -0.132827,0.6853823 0,1.03125 0.132667,0.3455234 0.354278,0.5704552 0.6875,0.71875 0.333208,0.1483252 0.654481,0.1639399 1,0.03125 0.333439,-0.1280282 0.595464,-0.351882 0.75,-0.6875 0.154519,-0.3355855 0.132665,-0.6544755 0,-1 -0.132827,-0.3458666 -0.348076,-0.6353092 -0.6875,-0.78125 -0.169719,-0.072952 -0.329081,-0.091076 -0.5,-0.09375 -0.08546,-0.00134 -0.164156,-0.00941 -0.25,0 z m -3.21875,2.34375 c -0.508802,-0.00139 -1.077458,0.2651436 -1.4375,0.9375 L 9.90625,13.406251 c -0.198958,0.862149 2.048853,1.209616 2.1875,0.625 0.08391,-0.353831 0.615216,-4.2580338 1.1875,-5.1874998 -0.13532,-0.3834475 -0.584948,-0.6548589 -1.09375,-0.65625 z m 7.5625,0.4375 c -0.07545,0.00175 -0.170869,0.032122 -0.25,0.0625 -0.158284,0.060796 -0.242552,0.1345919 -0.375,0.25 l -1.21875,1 -2.875,-1.125 c -0.187697,-0.083803 -0.359063,-0.10936 -0.5625,-0.03125 -0.736191,0.085748 -0.915906,1.2646438 -1.0625,1.7499998 l -0.6875,4.03125 0.84375,3.093751 -0.78125,3.78125 c -0.0077,0.229993 0.07873,0.400386 0.21875,0.5625 0.140017,0.162116 0.301631,0.273588 0.53125,0.28125 0.217809,0.0073 0.437329,-0.09778 0.59375,-0.25 0.156427,-0.152215 0.211464,-0.344696 0.21875,-0.5625 l 0.78125,-3.34375 c 0.02969,-0.129992 0.06121,-0.263802 0.0625,-0.375 0.01595,-0.282223 -0.01006,-0.450766 -0.09375,-0.71875 l -0.46875,-2.062501 2.40625,1.031251 0.53125,3.4375 c 0.0033,0.07667 -0.0174,0.142333 0,0.1875 0.07811,0.203448 0.234193,0.347014 0.4375,0.4375 0.20329,0.09049 0.421545,0.109379 0.625,0.03125 0.384119,-0.147501 0.529927,-0.444664 0.46875,-0.875 l -0.625,-3.843751 c -0.05453,-0.445945 -0.359187,-0.75668 -0.625,-0.875 l -2.28125,-0.84375 c 0.04098,-0.164045 0.09485,-0.49978 0.09375,-0.5 0.60597,0.160809 1.182425,0.282729 1.78125,0.40625 0.736358,0.07038 0.960664,-1.009097 0.25,-1.25 l -1.8125,-0.46875 c 0,0 0.16176,-0.674215 0.15625,-1.25 l 1.65625,0.625 c 0.156389,0.06934 0.321846,0.05641 0.46875,0 0.192055,-0.07374 0.305261,-0.148352 0.59375,-0.40625 l 1.59375,-1.3437498 c 0.0469,-0.1477788 0.02078,-0.3019716 -0.03125,-0.4375 -0.06502,-0.1692916 -0.181708,-0.2761831 -0.34375,-0.34375 -0.08103,-0.033768 -0.143304,-0.064255 -0.21875,-0.0625 z m 1.4375,0.1875 -0.5,0.03125 0.625,10.0625008 0.46875,-0.1875 -0.59375,-9.9062508 z m -2.09375,4.6874998 -0.46875,0.09375 1.40625,6.843751 -8.71875,3.375 0.375,0.9375 8.53125,-3.3125 0.46875,2.3125 0.46875,-0.1875 -0.46875,-2.3125 3.375,-1.3125 c 0.378171,-0.155715 0.397897,-0.271878 0.65625,-0.59375 0.258331,-0.34108 0.371941,-1.090602 0.21875,-1.5 l -0.84375,0.1875 c 0.09377,0.246851 0.12115,0.548774 -0.03125,0.75 -0.07278,0.09608 -0.194385,0.173698 -0.3125,0.21875 l -3.28125,1.25 -1.375,-6.750001 z"
     id="flowRoot3192" />
</svg>

<svg width="32" height="32" viewBox="0 0 32 32" fill="none" xmlns="http://www.w3.org/2000/svg">
<g clip-path="url(#clip0)">
<path d="M3.65748 0.0419596C1.37635 0.0419596 0.0940399 1.22135 0.0940399 3.63106V28.4717C0.0940399 30.7258 1.24716 31.9059 3.52619 31.9059H28.4718C30.7514 31.9059 31.906 30.7848 31.906 28.4717V3.63106C31.906 1.28007 30.7514 0.0419596 28.4005 0.0419596C28.4002 0.0419596 3.64964 0.0340679 3.65748 0.0419596V0.0419596Z" fill="#111111" stroke="#EEEEEE" stroke-width="0.188075"/>
<path d="M15.4062 5.84373C15.3204 5.85314 15.2396 5.87422 15.1562 5.90623C14.8107 6.03892 14.5546 6.29178 14.4062 6.62498C14.2579 6.95821 14.2734 7.31036 14.4062 7.65623C14.5389 8.00175 14.7605 8.22668 15.0938 8.37498C15.427 8.5233 15.7482 8.53892 16.0938 8.40623C16.4272 8.2782 16.6892 8.05435 16.8438 7.71873C16.9983 7.38314 16.9764 7.06425 16.8438 6.71873C16.7109 6.37286 16.4957 6.08342 16.1562 5.93748C15.9865 5.86453 15.8272 5.8464 15.6562 5.84373C15.5708 5.84239 15.4921 5.83432 15.4062 5.84373ZM12.1875 8.18748C11.6787 8.18609 11.11 8.45262 10.75 9.12498L9.90625 13.4062C9.70729 14.2684 11.9551 14.6158 12.0937 14.0312C12.1777 13.6774 12.709 9.7732 13.2812 8.84373C13.1459 8.46028 12.6963 8.18887 12.1875 8.18748ZM19.75 8.62498C19.6745 8.62673 19.5791 8.6571 19.5 8.68748C19.3417 8.74828 19.2574 8.82207 19.125 8.93748L17.9062 9.93748L15.0312 8.81248C14.8436 8.72868 14.6722 8.70312 14.4688 8.78123C13.7326 8.86698 13.5528 10.0459 13.4062 10.5312L12.7187 14.5625L13.5625 17.6562L12.7812 21.4375C12.7735 21.6675 12.86 21.8379 13 22C13.14 22.1621 13.3016 22.2736 13.5312 22.2812C13.7491 22.2885 13.9686 22.1835 14.125 22.0312C14.2814 21.879 14.3365 21.6865 14.3438 21.4687L15.125 18.125C15.1547 17.995 15.1862 17.8612 15.1875 17.75C15.2034 17.4678 15.1774 17.2992 15.0938 17.0312L14.625 14.9687L17.0312 16L17.5625 19.4375C17.5658 19.5141 17.5451 19.5798 17.5625 19.625C17.6406 19.8284 17.7967 19.972 18 20.0625C18.2033 20.153 18.4215 20.1719 18.625 20.0937C19.0091 19.9462 19.1549 19.6491 19.0938 19.2187L18.4688 15.375C18.4142 14.929 18.1096 14.6183 17.8438 14.5L15.5625 13.6562C15.6035 13.4922 15.6573 13.1564 15.6562 13.1562C16.2622 13.317 16.8387 13.439 17.4375 13.5625C18.1739 13.6329 18.3982 12.5534 17.6875 12.3125L15.875 11.8437C15.875 11.8437 16.0368 11.1695 16.0312 10.5937L17.6875 11.2187C17.8439 11.2881 18.0093 11.2751 18.1562 11.2187C18.3483 11.145 18.4615 11.0704 18.75 10.8125L20.3438 9.46873C20.3907 9.32095 20.3645 9.16676 20.3125 9.03123C20.2475 8.86194 20.1308 8.75505 19.9688 8.68748C19.8877 8.65371 19.8254 8.62322 19.75 8.62498V8.62498ZM21.1875 8.81248L20.6875 8.84373L21.3125 18.9062L21.7812 18.7187L21.1875 8.81248V8.81248ZM19.0938 13.5L18.625 13.5937L20.0312 20.4375L11.3125 23.8125L11.6875 24.75L20.2188 21.4375L20.6875 23.75L21.1562 23.5625L20.6875 21.25L24.0625 19.9375C24.4407 19.7818 24.4604 19.6656 24.7188 19.3437C24.9771 19.0026 25.0907 18.2531 24.9375 17.8437L24.0938 18.0312C24.1875 18.2781 24.2149 18.58 24.0625 18.7812C23.9897 18.8773 23.8681 18.9549 23.75 19L20.4688 20.25L19.0938 13.5Z" fill="white"/>
</g>
<defs>
<clipPath id="clip0">
<path d="M0 0H32V32H0V0Z" fill="white"/>
</clipPath>
</defs>
</svg>
